X: 1
T: S\aa g\aar vi rundt om en enerb\aerbusk [A]
T: Circle Around the Christmas Tree
O: Norway
M: 2/4
L: 1/16
K: A
|: "A"e2ef e2ef | e2ed        c2z2 | "E7"d2dc    B2z2 |  "A"e2ed  c2z2 \
|  "A"e2ef e2ef | e2ed "(F#m)"c2z2 | "Bm"d2B2 "E"e2G2 | "E7"B4 "A"A4 :|
